src/assets/darts.svg

<svg xmlns="http://www.w3.org/2000/svg" width="1503" height="1859" fill="none" viewBox="0 0 1503 1859">
    <path fill="#fff" stroke="#7f42e1" stroke-linecap="round" stroke-linejoin="round" stroke-width="22" d="M1751.41 953.913c-73.48 268.337-366.16 626.907-653.74 800.867-168.421 101.88-297.726 117.85-361.209 59.67-.242-.19-.462-.4-.667-.59l-264.476-242.52L1458.07 478.613l273.19 250.981c39.67 42.568 49.1 118.526 20.15 224.319"/>
    <path fill="#d3f0ff" stroke="#7f42e1" stroke-linecap="round" stroke-linejoin="round" stroke-width="22" d="M1484.98 709.614c-73.46 268.363-366.15 626.906-653.736 800.866-287.585 173.96-461.147 97.45-387.687-170.91S809.712 712.661 1097.3 538.701c287.58-173.959 461.16-97.427 387.68 170.913"/>
    <path fill="#fff" stroke="#7f42e1" stroke-linecap="round" stroke-linejoin="round" stroke-width="22" d="M1348.86 791.954c-54.26 198.201-270.41 463.016-482.803 591.486-212.391 128.48-340.583 71.95-286.34-126.23 54.266-198.2 270.413-463.013 482.803-591.488s340.58-71.954 286.34 126.232"/>
    <path fill="#fff" stroke="#7f42e1" stroke-linecap="round" stroke-linejoin="round" stroke-width="22" d="M1318.4 875.426c-82.17 183.794-268.67 396.914-452.368 508.024a751 751 0 0 1-16.631 9.79L728.35 1282.26l468.33-518.65z"/>
    <path fill="#d3f0ff" stroke="#7f42e1" stroke-linecap="round" stroke-linejoin="round" stroke-width="22" d="M1211.5 875.043c-34.87 127.387-173.85 297.647-310.362 380.227-136.516 82.58-218.95 46.28-184.067-81.15 34.882-127.42 173.845-297.648 310.359-380.227 136.52-82.578 218.95-46.276 184.07 81.15"/>
    <path fill="#fff" stroke="#7f42e1" stroke-linecap="round" stroke-linejoin="round" stroke-width="22" d="M1083.85 952.26c-16.88 61.62-84.103 143.97-150.132 183.91s-105.901 22.37-89.024-39.25c16.876-61.61 84.1-143.961 150.13-183.903 66.026-39.941 105.896-22.373 89.026 39.243"/>
    <path fill="#d3f0ff" stroke="#7f42e1" stroke-linecap="round" stroke-linejoin="round" stroke-width="22" d="m887.533 918.442 68.541 74.95c7.085 7.748 2.215 16.658-5.53 23.738-7.745 7.09-15.465 9.71-22.55 1.96l-68.541-74.952z"/>
    <path fill="#fff" stroke="#7f42e1" stroke-linecap="round" stroke-linejoin="round" stroke-width="22" d="M196.108 187.751c-5.764-103.11 27.746-175.769 83.26-176.742 90.354-1.586 217.952 202.342 200.007 453.302zm-1.377 1.263C92.583 174.116 17.239 201.038 11.347 256.248c-9.592 89.878 182.107 235.135 433.589 239.585zm636.017 560.549c13.192 14.44 128.625 165.449 73.748 215.686-57.408 52.531-194.991-78.207-208.203-92.643-13.192-14.44 6.199-53.667 43.322-87.645s77.926-49.814 91.118-35.374z"/>
    <path fill="#d3f0ff" stroke="#7f42e1" stroke-linecap="round" stroke-linejoin="round" stroke-width="22" d="M830.746 749.565c13.192 14.44-6.199 53.668-43.322 87.645s-77.926 49.814-91.118 35.374-502.139-642.565-481.428-661.503S817.554 735.125 830.766 749.56z"/>
    <path fill="#d3f0ff" stroke="#7f42e1" stroke-linecap="round" stroke-linejoin="round" stroke-width="22" d="M195.319 189.678c-60.821 30.301-112.267 76.397-87.25 159.527 25.865 85.875 210.968 193.415 351.616 162.803l-264.39-322.324z"/>
    <path fill="#d3f0ff" stroke="#7f42e1" stroke-linecap="round" stroke-linejoin="round" stroke-width="22" d="M195.318 189.678c35.564-57.911 86.049-105.069 166.591-72.748 83.229 33.386 175.527 208.811 145.477 351.418z"/>
</svg>

<svg width="1503" height="1859" viewBox="0 0 1503 1859" fill="none" xmlns="http://www.w3.org/2000/svg">
<path d="M1751.41 953.913C1677.93 1222.25 1385.25 1580.82 1097.67 1754.78C929.249 1856.66 799.944 1872.63 736.461 1814.45C736.219 1814.26 735.999 1814.05 735.794 1813.86L471.318 1571.34L1458.07 478.613L1731.26 729.594C1770.93 772.162 1780.36 848.12 1751.41 953.913Z" fill="white" stroke="#7F42E1" stroke-width="22" stroke-linecap="round" stroke-linejoin="round"/>
<path d="M1484.98 709.614C1411.52 977.977 1118.83 1336.52 831.244 1510.48C543.659 1684.44 370.097 1607.93 443.557 1339.57C517.017 1071.21 809.712 712.661 1097.3 538.701C1384.88 364.742 1558.46 441.274 1484.98 709.614Z" fill="#D3F0FF" stroke="#7F42E1" stroke-width="22" stroke-linecap="round" stroke-linejoin="round"/>
<path d="M1348.86 791.954C1294.6 990.155 1078.45 1254.97 866.057 1383.44C653.666 1511.92 525.474 1455.39 579.717 1257.21C633.983 1059.01 850.13 794.197 1062.52 665.722C1274.91 537.247 1403.1 593.768 1348.86 791.954Z" fill="white" stroke="#7F42E1" stroke-width="22" stroke-linecap="round" stroke-linejoin="round"/>
<path d="M1318.4 875.426C1236.23 1059.22 1049.73 1272.34 866.032 1383.45C860.439 1386.84 854.895 1390.1 849.401 1393.24L728.35 1282.26L1196.68 763.61L1318.4 875.426Z" fill="white" stroke="#7F42E1" stroke-width="22" stroke-linecap="round" stroke-linejoin="round"/>
<path d="M1211.5 875.043C1176.63 1002.43 1037.65 1172.69 901.138 1255.27C764.622 1337.85 682.188 1301.55 717.071 1174.12C751.953 1046.7 890.916 876.472 1027.43 793.893C1163.95 711.315 1246.38 747.617 1211.5 875.043Z" fill="#D3F0FF" stroke="#7F42E1" stroke-width="22" stroke-linecap="round" stroke-linejoin="round"/>
<path d="M1083.85 952.26C1066.97 1013.88 999.747 1096.23 933.718 1136.17C867.688 1176.11 827.817 1158.54 844.694 1096.92C861.57 1035.31 928.794 952.959 994.824 913.017C1060.85 873.076 1100.72 890.644 1083.85 952.26Z" fill="white" stroke="#7F42E1" stroke-width="22" stroke-linecap="round" stroke-linejoin="round"/>
<path d="M887.533 918.442L956.074 993.392C963.159 1001.14 958.289 1010.05 950.544 1017.13C942.799 1024.22 935.079 1026.84 927.994 1019.09L859.453 944.138L887.533 918.442Z" fill="#D3F0FF" stroke="#7F42E1" stroke-width="22" stroke-linecap="round" stroke-linejoin="round"/>
<path d="M196.108 187.751C190.344 84.6408 223.854 11.9821 279.368 11.0093C369.722 9.4229 497.32 213.351 479.375 464.311L196.108 187.751Z" fill="white" stroke="#7F42E1" stroke-width="22" stroke-linecap="round" stroke-linejoin="round"/>
<path d="M194.731 189.014C92.5827 174.116 17.2387 201.038 11.3467 256.248C1.75474 346.126 193.454 491.383 444.936 495.833L194.731 189.014Z" fill="white" stroke="#7F42E1" stroke-width="22" stroke-linecap="round" stroke-linejoin="round"/>
<path d="M830.748 749.563C843.94 764.003 959.373 915.012 904.496 965.249C847.088 1017.78 709.505 887.042 696.293 872.606C683.101 858.166 702.492 818.939 739.615 784.961C776.739 750.984 817.541 735.147 830.733 749.587L830.748 749.563Z" fill="white" stroke="#7F42E1" stroke-width="22" stroke-linecap="round" stroke-linejoin="round"/>
<path d="M830.746 749.565C843.938 764.005 824.547 803.233 787.424 837.21C750.3 871.187 709.498 887.024 696.306 872.584C683.114 858.144 194.167 230.019 214.878 211.081C235.589 192.143 817.554 735.125 830.766 749.56L830.746 749.565Z" fill="#D3F0FF" stroke="#7F42E1" stroke-width="22" stroke-linecap="round" stroke-linejoin="round"/>
<path d="M195.319 189.678C134.498 219.979 83.0518 266.075 108.069 349.205C133.934 435.08 319.037 542.62 459.685 512.008L195.295 189.684L195.319 189.678Z" fill="#D3F0FF" stroke="#7F42E1" stroke-width="22" stroke-linecap="round" stroke-linejoin="round"/>
<path d="M195.318 189.678C230.882 131.767 281.367 84.6094 361.909 116.93C445.138 150.316 537.436 325.741 507.386 468.348L195.318 189.678Z" fill="#D3F0FF" stroke="#7F42E1" stroke-width="22" stroke-linecap="round" stroke-linejoin="round"/>
</svg>
